img/cloud-3.svg

<svg width="630" height="193" viewBox="0 0 630 193" fill="none" xmlns="http://www.w3.org/2000/svg">
<path d="M109.999 16.575L628.999 6.39941L619.415 157.58H140.225L109.999 16.575Z" fill="white"/>
<path d="M133.591 156.905L122.142 148.62L93.0002 9.28478L615.47 1L629 9.28478" stroke="white"/>
<path d="M468.999 191.325L298.999 141.382H408.999L468.999 191.325Z" fill="white"/>
<path d="M296.999 144.756L459.999 192" stroke="white"/>
<path d="M7.75752 71.3981L51.0394 75.545C37.6223 72.5845 4.74887 59.4579 2.79059 61.1605C1.22397 62.5226 5.44912 68.5531 7.75752 71.3981Z" fill="white"/>
<path d="M12.0885 127.758L53.5931 114.903C40.0702 117.345 4.63417 117.916 3.49756 120.239C2.58827 122.098 8.84598 126.026 12.0885 127.758Z" fill="white"/>
<path d="M47.0524 173.271L66.9591 156.67C60.0169 160.747 40.3028 166.988 40.2726 168.946C40.2485 170.512 44.7824 172.482 47.0524 173.271Z" fill="white"/>
</svg>

<svg width="630" height="193" viewBox="0 0 630 193" fill="none" xmlns="http://www.w3.org/2000/svg"><path d="M109.999 16.575l519-10.176-9.584 151.181h-479.19L109.999 16.575z" fill="#fff"/><path d="M133.591 156.905l-11.449-8.285L93 9.285 615.47 1 629 9.285" stroke="#fff"/><path d="M468.999 191.325l-170-49.943h110l60 49.943z" fill="#fff"/><path d="M296.999 144.756l163 47.244" stroke="#fff"/><path d="M7.758 71.398l43.281 4.147C37.622 72.585 4.75 59.458 2.791 61.16c-1.567 1.363 2.658 7.393 4.967 10.238zm4.33 56.36l41.505-12.855c-13.523 2.442-48.959 3.013-50.095 5.336-.91 1.859 5.348 5.787 8.59 7.519zm34.964 45.513L66.96 156.67c-6.942 4.077-26.656 10.318-26.686 12.276-.025 1.566 4.51 3.536 6.78 4.325z" fill="#fff"/></svg>
